X:411
T:Tidy Girleen, The
T:Behind the Bush in the Garden
S:'Smoke In Your Eyes' via Ellen Stern
Z:Nigel Gatherer
M:6/8
L:1/8
K:ADor
c2 A  AGE c2 A AGE | G2 E  D2 E G2 G EFG  |
A2 B- Bcd efg e2 d | c2 A  AGE  ABA  A3  :|
c2 B- Bcd efg e2 d | c2 B- Bcd  e2 A B2 A |
c2 B- Bcd efg e2 d | c2 A  AGE  ABA  A3  :|
<end>
<start>
